src/img/networks/instagram.svg

<svg width="35" height="35" viewBox="0 0 35 35" fill="none" xmlns="http://www.w3.org/2000/svg">
<circle cx="17.5" cy="17.5" r="17" fill="white" stroke="#44220F"/>
<mask id="path-2-inside-1" fill="white">
<path d="M11.4902 26H23.5098C24.8829 26 26 24.8829 26 23.5098V11.4902C26 10.1171 24.8829 9 23.5098 9H11.4902C10.1171 9 9 10.1171 9 11.4902V23.5098C9 24.8829 10.1171 26 11.4902 26ZM9.99609 11.4902C9.99609 10.6664 10.6664 9.99609 11.4902 9.99609H23.5098C24.3336 9.99609 25.0039 10.6664 25.0039 11.4902V23.5098C25.0039 24.3336 24.3336 25.0039 23.5098 25.0039H11.4902C10.6664 25.0039 9.99609 24.3336 9.99609 23.5098V11.4902Z"/>
</mask>
<path d="M11.4902 26H23.5098C24.8829 26 26 24.8829 26 23.5098V11.4902C26 10.1171 24.8829 9 23.5098 9H11.4902C10.1171 9 9 10.1171 9 11.4902V23.5098C9 24.8829 10.1171 26 11.4902 26ZM9.99609 11.4902C9.99609 10.6664 10.6664 9.99609 11.4902 9.99609H23.5098C24.3336 9.99609 25.0039 10.6664 25.0039 11.4902V23.5098C25.0039 24.3336 24.3336 25.0039 23.5098 25.0039H11.4902C10.6664 25.0039 9.99609 24.3336 9.99609 23.5098V11.4902Z" fill="#F59E27"/>
<path d="M11.4902 27H23.5098V25H11.4902V27ZM23.5098 27C25.4352 27 27 25.4352 27 23.5098H25C25 24.3306 24.3306 25 23.5098 25V27ZM27 23.5098V11.4902H25V23.5098H27ZM27 11.4902C27 9.56482 25.4352 8 23.5098 8V10C24.3306 10 25 10.6694 25 11.4902H27ZM23.5098 8H11.4902V10H23.5098V8ZM11.4902 8C9.56482 8 8 9.56482 8 11.4902H10C10 10.6694 10.6694 10 11.4902 10V8ZM8 11.4902V23.5098H10V11.4902H8ZM8 23.5098C8 25.4352 9.56482 27 11.4902 27V25C10.6694 25 10 24.3306 10 23.5098H8ZM10.9961 11.4902C10.9961 11.2187 11.2187 10.9961 11.4902 10.9961V8.99609C10.1141 8.99609 8.99609 10.1141 8.99609 11.4902H10.9961ZM11.4902 10.9961H23.5098V8.99609H11.4902V10.9961ZM23.5098 10.9961C23.7813 10.9961 24.0039 11.2187 24.0039 11.4902H26.0039C26.0039 10.1141 24.8859 8.99609 23.5098 8.99609V10.9961ZM24.0039 11.4902V23.5098H26.0039V11.4902H24.0039ZM24.0039 23.5098C24.0039 23.7813 23.7813 24.0039 23.5098 24.0039V26.0039C24.8859 26.0039 26.0039 24.8859 26.0039 23.5098H24.0039ZM23.5098 24.0039H11.4902V26.0039H23.5098V24.0039ZM11.4902 24.0039C11.2187 24.0039 10.9961 23.7813 10.9961 23.5098H8.99609C8.99609 24.8859 10.1141 26.0039 11.4902 26.0039V24.0039ZM10.9961 23.5098V11.4902H8.99609V23.5098H10.9961Z" fill="#44220F" mask="url(#path-2-inside-1)"/>
<mask id="path-4-inside-2" fill="white">
<path d="M17.5 21.9824C19.9716 21.9824 21.9824 19.9716 21.9824 17.5C21.9824 15.0284 19.9716 13.0176 17.5 13.0176C15.0284 13.0176 13.0176 15.0284 13.0176 17.5C13.0176 19.9716 15.0284 21.9824 17.5 21.9824ZM17.5 14.0137C19.4224 14.0137 20.9863 15.5776 20.9863 17.5C20.9863 19.4224 19.4224 20.9863 17.5 20.9863C15.5776 20.9863 14.0137 19.4224 14.0137 17.5C14.0137 15.5776 15.5776 14.0137 17.5 14.0137Z"/>
</mask>
<path d="M17.5 21.9824C19.9716 21.9824 21.9824 19.9716 21.9824 17.5C21.9824 15.0284 19.9716 13.0176 17.5 13.0176C15.0284 13.0176 13.0176 15.0284 13.0176 17.5C13.0176 19.9716 15.0284 21.9824 17.5 21.9824ZM17.5 14.0137C19.4224 14.0137 20.9863 15.5776 20.9863 17.5C20.9863 19.4224 19.4224 20.9863 17.5 20.9863C15.5776 20.9863 14.0137 19.4224 14.0137 17.5C14.0137 15.5776 15.5776 14.0137 17.5 14.0137Z" fill="#F59E27"/>
<path d="M17.5 22.9824C20.5238 22.9824 22.9824 20.5238 22.9824 17.5H20.9824C20.9824 19.4193 19.4193 20.9824 17.5 20.9824V22.9824ZM22.9824 17.5C22.9824 14.4762 20.5238 12.0176 17.5 12.0176V14.0176C19.4193 14.0176 20.9824 15.5807 20.9824 17.5H22.9824ZM17.5 12.0176C14.4762 12.0176 12.0176 14.4762 12.0176 17.5H14.0176C14.0176 15.5807 15.5807 14.0176 17.5 14.0176V12.0176ZM12.0176 17.5C12.0176 20.5238 14.4762 22.9824 17.5 22.9824V20.9824C15.5807 20.9824 14.0176 19.4193 14.0176 17.5H12.0176ZM17.5 15.0137C18.8701 15.0137 19.9863 16.1299 19.9863 17.5H21.9863C21.9863 15.0253 19.9747 13.0137 17.5 13.0137V15.0137ZM19.9863 17.5C19.9863 18.8701 18.8701 19.9863 17.5 19.9863V21.9863C19.9747 21.9863 21.9863 19.9747 21.9863 17.5H19.9863ZM17.5 19.9863C16.1299 19.9863 15.0137 18.8701 15.0137 17.5H13.0137C13.0137 19.9747 15.0253 21.9863 17.5 21.9863V19.9863ZM15.0137 17.5C15.0137 16.1299 16.1299 15.0137 17.5 15.0137V13.0137C15.0253 13.0137 13.0137 15.0253 13.0137 17.5H15.0137Z" fill="#44220F" mask="url(#path-4-inside-2)"/>
<mask id="path-6-inside-3" fill="white">
<path d="M22.4805 14.0137C23.3043 14.0137 23.9746 13.3434 23.9746 12.5195C23.9746 11.6957 23.3043 11.0254 22.4805 11.0254C21.6566 11.0254 20.9863 11.6957 20.9863 12.5195C20.9863 13.3434 21.6566 14.0137 22.4805 14.0137ZM22.4805 12.0215C22.755 12.0215 22.9785 12.245 22.9785 12.5195C22.9785 12.7941 22.755 13.0176 22.4805 13.0176C22.2059 13.0176 21.9824 12.7941 21.9824 12.5195C21.9824 12.245 22.2059 12.0215 22.4805 12.0215Z"/>
</mask>
<path d="M22.4805 14.0137C23.3043 14.0137 23.9746 13.3434 23.9746 12.5195C23.9746 11.6957 23.3043 11.0254 22.4805 11.0254C21.6566 11.0254 20.9863 11.6957 20.9863 12.5195C20.9863 13.3434 21.6566 14.0137 22.4805 14.0137ZM22.4805 12.0215C22.755 12.0215 22.9785 12.245 22.9785 12.5195C22.9785 12.7941 22.755 13.0176 22.4805 13.0176C22.2059 13.0176 21.9824 12.7941 21.9824 12.5195C21.9824 12.245 22.2059 12.0215 22.4805 12.0215Z" fill="#F59E27"/>
<path d="M22.4805 15.0137C23.8566 15.0137 24.9746 13.8957 24.9746 12.5195H22.9746C22.9746 12.7911 22.752 13.0137 22.4805 13.0137V15.0137ZM24.9746 12.5195C24.9746 11.1434 23.8566 10.0254 22.4805 10.0254V12.0254C22.752 12.0254 22.9746 12.248 22.9746 12.5195H24.9746ZM22.4805 10.0254C21.1043 10.0254 19.9863 11.1434 19.9863 12.5195H21.9863C21.9863 12.248 22.2089 12.0254 22.4805 12.0254V10.0254ZM19.9863 12.5195C19.9863 13.8957 21.1043 15.0137 22.4805 15.0137V13.0137C22.2089 13.0137 21.9863 12.7911 21.9863 12.5195H19.9863ZM22.4805 13.0215C22.2028 13.0215 21.9785 12.7972 21.9785 12.5195H23.9785C23.9785 11.6927 23.3073 11.0215 22.4805 11.0215V13.0215ZM21.9785 12.5195C21.9785 12.2418 22.2028 12.0176 22.4805 12.0176V14.0176C23.3073 14.0176 23.9785 13.3464 23.9785 12.5195H21.9785ZM22.4805 12.0176C22.7582 12.0176 22.9824 12.2418 22.9824 12.5195H20.9824C20.9824 13.3464 21.6536 14.0176 22.4805 14.0176V12.0176ZM22.9824 12.5195C22.9824 12.7972 22.7582 13.0215 22.4805 13.0215V11.0215C21.6536 11.0215 20.9824 11.6927 20.9824 12.5195H22.9824Z" fill="#44220F" mask="url(#path-6-inside-3)"/>
</svg>

<svg width="35" height="35" fill="none" xmlns="http://www.w3.org/2000/svg"><circle cx="17.5" cy="17.5" r="17" fill="#fff" stroke="#44220F"/><mask id="a" fill="#fff"><path d="M11.49 26h12.02A2.493 2.493 0 0 0 26 23.51V11.49A2.493 2.493 0 0 0 23.51 9H11.49A2.493 2.493 0 0 0 9 11.49v12.02A2.493 2.493 0 0 0 11.49 26zM9.996 11.49c0-.824.67-1.494 1.494-1.494h12.02c.824 0 1.494.67 1.494 1.494v12.02c0 .824-.67 1.494-1.494 1.494H11.49c-.824 0-1.494-.67-1.494-1.494V11.49z"/></mask><path d="M11.49 26h12.02A2.493 2.493 0 0 0 26 23.51V11.49A2.493 2.493 0 0 0 23.51 9H11.49A2.493 2.493 0 0 0 9 11.49v12.02A2.493 2.493 0 0 0 11.49 26zM9.996 11.49c0-.824.67-1.494 1.494-1.494h12.02c.824 0 1.494.67 1.494 1.494v12.02c0 .824-.67 1.494-1.494 1.494H11.49c-.824 0-1.494-.67-1.494-1.494V11.49z" fill="#F59E27"/><path d="M11.49 27h12.02v-2H11.49v2zm12.02 0A3.493 3.493 0 0 0 27 23.51h-2c0 .82-.67 1.49-1.49 1.49v2zM27 23.51V11.49h-2v12.02h2zm0-12.02A3.493 3.493 0 0 0 23.51 8v2c.82 0 1.49.67 1.49 1.49h2zM23.51 8H11.49v2h12.02V8zM11.49 8A3.493 3.493 0 0 0 8 11.49h2c0-.82.67-1.49 1.49-1.49V8zM8 11.49v12.02h2V11.49H8zm0 12.02A3.493 3.493 0 0 0 11.49 27v-2c-.82 0-1.49-.67-1.49-1.49H8zm2.996-12.02c0-.271.223-.494.494-.494v-2a2.496 2.496 0 0 0-2.494 2.494h2zm.494-.494h12.02v-2H11.49v2zm12.02 0c.271 0 .494.223.494.494h2a2.496 2.496 0 0 0-2.494-2.494v2zm.494.494v12.02h2V11.49h-2zm0 12.02a.496.496 0 0 1-.494.494v2a2.496 2.496 0 0 0 2.494-2.494h-2zm-.494.494H11.49v2h12.02v-2zm-12.02 0a.496.496 0 0 1-.494-.494h-2a2.496 2.496 0 0 0 2.494 2.494v-2zm-.494-.494V11.49h-2v12.02h2z" fill="#44220F" mask="url(#a)"/><mask id="b" fill="#fff"><path d="M17.5 21.982a4.487 4.487 0 0 0 4.482-4.482 4.487 4.487 0 0 0-4.482-4.482 4.487 4.487 0 0 0-4.482 4.482 4.487 4.487 0 0 0 4.482 4.482zm0-7.968a3.49 3.49 0 0 1 3.486 3.486 3.49 3.49 0 0 1-3.486 3.486 3.49 3.49 0 0 1-3.486-3.486 3.49 3.49 0 0 1 3.486-3.486z"/></mask><path d="M17.5 21.982a4.487 4.487 0 0 0 4.482-4.482 4.487 4.487 0 0 0-4.482-4.482 4.487 4.487 0 0 0-4.482 4.482 4.487 4.487 0 0 0 4.482 4.482zm0-7.968a3.49 3.49 0 0 1 3.486 3.486 3.49 3.49 0 0 1-3.486 3.486 3.49 3.49 0 0 1-3.486-3.486 3.49 3.49 0 0 1 3.486-3.486z" fill="#F59E27"/><path d="M17.5 22.982a5.488 5.488 0 0 0 5.482-5.482h-2a3.488 3.488 0 0 1-3.482 3.482v2zm5.482-5.482a5.488 5.488 0 0 0-5.482-5.482v2a3.488 3.488 0 0 1 3.482 3.482h2zM17.5 12.018a5.488 5.488 0 0 0-5.482 5.482h2a3.488 3.488 0 0 1 3.482-3.482v-2zM12.018 17.5a5.488 5.488 0 0 0 5.482 5.482v-2a3.488 3.488 0 0 1-3.482-3.482h-2zm5.482-2.486a2.49 2.49 0 0 1 2.486 2.486h2a4.49 4.49 0 0 0-4.486-4.486v2zm2.486 2.486a2.49 2.49 0 0 1-2.486 2.486v2a4.49 4.49 0 0 0 4.486-4.486h-2zM17.5 19.986a2.49 2.49 0 0 1-2.486-2.486h-2a4.49 4.49 0 0 0 4.486 4.486v-2zM15.014 17.5a2.49 2.49 0 0 1 2.486-2.486v-2a4.49 4.49 0 0 0-4.486 4.486h2z" fill="#44220F" mask="url(#b)"/><mask id="c" fill="#fff"><path d="M22.48 14.014c.824 0 1.495-.67 1.495-1.494s-.67-1.495-1.495-1.495c-.823 0-1.494.67-1.494 1.495 0 .823.67 1.494 1.494 1.494zm0-1.992a.499.499 0 1 1 0 .997.499.499 0 0 1 0-.998z"/></mask><path d="M22.48 14.014c.824 0 1.495-.67 1.495-1.494s-.67-1.495-1.495-1.495c-.823 0-1.494.67-1.494 1.495 0 .823.67 1.494 1.494 1.494zm0-1.992a.499.499 0 1 1 0 .997.499.499 0 0 1 0-.998z" fill="#F59E27"/><path d="M22.48 15.014a2.496 2.496 0 0 0 2.495-2.494h-2a.496.496 0 0 1-.495.494v2zm2.495-2.494a2.496 2.496 0 0 0-2.495-2.495v2c.272 0 .495.223.495.495h2zm-2.495-2.495a2.496 2.496 0 0 0-2.494 2.495h2c0-.272.223-.495.494-.495v-2zm-2.494 2.495a2.496 2.496 0 0 0 2.494 2.494v-2a.496.496 0 0 1-.494-.494h-2zm2.494.502a.501.501 0 0 1-.502-.502h2c0-.827-.67-1.498-1.498-1.498v2zm-.502-.502c0-.278.225-.502.502-.502v2c.827 0 1.498-.672 1.498-1.498h-2zm.502-.502c.278 0 .502.224.502.502h-2c0 .826.672 1.498 1.498 1.498v-2zm.502.502a.501.501 0 0 1-.502.502v-2c-.826 0-1.498.67-1.498 1.498h2z" fill="#44220F" mask="url(#c)"/></svg>
